fs/tab_in_private_24_filled.svg

<svg viewBox="0 0 24 24" fill="none" xmlns="http://www.w3.org/2000/svg" height="1em" width="1em">
  <path d="M5.75 3H18.25C19.7688 3 21 4.23122 21 5.75V18.25C21 19.7688 19.7688 21 18.25 21H5.75C4.23122 21 3 19.7688 3 18.25V5.75C3 4.23122 4.23122 3 5.75 3ZM5 5.75V6.29297L6.29297 5H5.75C5.33579 5 5 5.33579 5 5.75ZM5 7.70718V10.293L10.293 5H7.70718L5 7.70718ZM11.7072 5L5 11.7072V14.293L14.293 5H11.7072ZM15.7072 5L5 15.7072V18.25C5 18.264 5.00039 18.278 5.00115 18.2918L18.2918 5.00115C18.278 5.00039 18.264 5 18.25 5H15.7072ZM18.9989 5.70832L5.70832 18.9989C5.72212 18.9996 5.73601 19 5.75 19H8.29297L19 8.29297V5.75C19 5.73601 18.9996 5.72212 18.9989 5.70832ZM19 9.70718L9.70718 19H12.293L19 12.293V9.70718ZM19 13.7072L13.7072 19H16.293L19 16.293V13.7072ZM19 17.7072L17.7072 19H18.25C18.6642 19 19 18.6642 19 18.25V17.7072Z" fill="#212121"/>
</svg>

<svg viewBox="0 0 24 24" fill="none" xmlns="http://www.w3.org/2000/svg" height="1em" width="1em">
  <path d="M5.75 3h12.5A2.75 2.75 0 0 1 21 5.75v12.5A2.75 2.75 0 0 1 18.25 21H5.75A2.75 2.75 0 0 1 3 18.25V5.75A2.75 2.75 0 0 1 5.75 3ZM5 5.75v.543L6.293 5H5.75a.75.75 0 0 0-.75.75Zm0 1.957v2.586L10.293 5H7.707L5 7.707ZM11.707 5 5 11.707v2.586L14.293 5h-2.586Zm4 0L5 15.707v2.543l.001.042 13.29-13.29A.762.762 0 0 0 18.25 5h-2.543ZM19 5.708 5.71 18.998a.275.275 0 0 0 .041.002h2.543L19 8.293V5.75l-.001-.042Zm.001 4L9.707 19h2.586L19 12.293V9.707Zm0 4L13.707 19h2.586L19 16.293v-2.586Zm0 4L17.707 19h.543a.75.75 0 0 0 .75-.75v-.543Z" fill="#212121"/>
</svg>
